X:2
T:Braes of Mar
M:4/4
L:1/8
R:Strathspey
C:Trad., as played by Seudan
Q:100
K:HP
[|: B/2{gAGAG}A3/2 {g}A3/2B/2 {g}d3/2e/2 {gfg}f3/2e/2 | {g}(3(dB{G}B) {gBd}B3/2A/2 {g}B/2d3/2 {gBd}B3/2A/2 | {gAGAG}A2 {g}A3/2B/2 {g}d3/2e/2 {gfg}f3/2d/2 | {gf}g3/2e/2 (3(agf) {gef}e2 {Gdc}d2:|
[|: {gef}e2 {A}e3/2f/2 {gf}g3/2f/2 {gef}e3/2d/2 | {gBd}B2 {g}B3/2A/2 {g}B/2d3/2 {gBd}B3/2A/2 | {gAGAG}A2 {g}A3/2B/2 {g}d3/2e/2 {gfg}f3/2d/2 | {gf}g3/2e/2 (3(agf) {gef}e2 {Gdc}d2:|
